images/Logo.svg

<svg fill="none" height="48" viewBox="0 0 184 48" width="184" xmlns="http://www.w3.org/2000/svg"><g fill="#bbc3cf"><path d="m75.0546 29.1709c0 2.2807-.5353 3.9564-1.6058 5.0269-1.0706 1.0706-2.7229 1.6058-4.9571 1.6058-2.2109 0-4.5615-.1163-7.0516-.349v-4.7128c1.8152.1164 3.6771.1746 5.5854.1746.5353 0 .9542-.1513 1.2567-.4538.3259-.3259.4888-.7564.4888-1.2917v-13.2654h-4.5382v-4.8873h10.8218z"/><path d="m90.7623 35.4546h-12.5672v-4.8873h3.1418v-14.6618h-3.1418v-4.8873h12.5672v4.8873h-3.1418v14.6618h3.1418z"/><path d="m114.847 34.9309c-5.446.5818-10.45.8727-15.011.8727-2.2808 0-3.9564-.5352-5.0269-1.6058-1.0706-1.0705-1.6059-2.7462-1.6059-5.0269v-11.1709c0-2.4436.547-4.2124 1.6408-5.3062 1.1171-1.1171 2.8974-1.6756 5.341-1.6756h12.567v4.8873h-11.171c-1.396 0-2.0941.6981-2.0941 2.0945v11.1709c0 .5353.1513.9658.4538 1.2917.3263.3025.7563.4538 1.2913.4538 2.677 0 5.12-.0582 7.331-.1746v-5.0618h-4.538v-4.1891h10.822z"/><path d="m139.29 34.9309c-5.446.5818-10.449.8727-15.011.8727-2.281 0-3.956-.5352-5.027-1.6058-1.07-1.0705-1.606-2.7462-1.606-5.0269v-11.1709c0-2.4436.547-4.2124 1.641-5.3062 1.117-1.1171 2.898-1.6756 5.341-1.6756h12.568v4.8873h-11.171c-1.397 0-2.095.6981-2.095 2.0945v11.1709c0 .5353.151.9658.454 1.2917.326.3025.756.4538 1.292.4538 2.676 0 5.12-.0582 7.33-.1746v-5.0618h-4.538v-4.1891h10.822z"/><path d="m149.071 30.5673h12.742v4.8873h-19.025v-24.4364h6.283z"/><path d="m183.64 35.4546h-19.375v-24.4364h19.375v4.8873h-13.091v4.7127h10.298v4.8873h-10.298v5.0618h13.091z"/><path clip-rule="evenodd" d="m2.65618 8.33013c.70864.00307 1.38735.28596 1.88845.78706.50109.50109.784 1.17981.78708 1.88851.01877.6948.30801 1.3548.80608 1.8396s1.16565.7561 1.86071.7561c.69505 0 1.36264-.2713 1.86071-.7561.49809-.4848.78729-1.1448.80609-1.8396v-8.33017c.0031-.70865.2859-1.38741.787-1.8885.5011-.501095 1.1799-.78395778 1.8885-.78703.7059.00665222 1.3808.291222 1.8783.792042.4975.500818.7777 1.177538.7797 1.883488v17.48917c-.0097.3563.0522.7109.1819 1.0429.1297.3319.3246.6345.5732.8899s.5458.4584.8741.597c.3284.1386.6812.21 1.0376.21s.7092-.0714 1.0375-.21.6256-.3416.8742-.597.4434-.558.5731-.8899c.1297-.332.1916-.6866.182-1.0429v-9.159c.003-.7087.2859-1.38742.787-1.88851.5011-.5011 1.1798-.78399 1.8885-.78706.7059.00665 1.3807.29125 1.8783.79207.4975.50082.7777 1.1775.7797 1.8835v9.159c0 .7071.2809 1.3851.7808 1.8851.5.4999 1.178.7807 1.885.7807s1.3851-.2808 1.885-.7807c.4999-.5.7808-1.178.7808-1.8851v-17.48917c.0031-.70898.2862-1.38804.7878-1.889189.5015-.50115 1.1807-.78378072 1.8896-.786341.7067.00360393 1.3832.287251 1.8811.788788.4979.501532.7767 1.180042.7751 1.886742v8.33017c.0188.6948.3079 1.3548.806 1.8396s1.1656.7561 1.8607.7561c.695 0 1.3627-.2713 1.8608-.7561s.7872-1.1448.806-1.8396c.0031-.709.2862-1.38805.7877-1.8892s1.1808-.78381 1.8898-.78637c.7067.00361 1.3832.28728 1.8811.78881.4978.50154.7765 1.18006.775 1.88676v26.0081c-.0026.7036-.2833 1.3777-.7808 1.8753-.4976.4975-1.1716.7782-1.8753.7808-.7059-.0015-1.3829-.2812-1.8841-.7784-.5012-.4971-.7863-1.1718-.7934-1.8777.0096-.3563-.0522-.7109-.1819-1.0428-.1297-.332-.3246-.6346-.5732-.89s-.5458-.4584-.8742-.597c-.3283-.1386-.6811-.21-1.0375-.21s-.7091.0714-1.0374.21c-.3284.1386-.6257.3416-.8742.597-.2486.2554-.4436.558-.5732.89-.1297.3319-.1915.6865-.1819 1.0428v8.3204c.0005.349-.0679.6947-.2011 1.0173-.1333.3226-.3289.6158-.5756.8626-.2467.2469-.5398.4428-.8623.5763-.3224.1335-.6681.2021-1.0172.2018-.7068.0011-1.3853-.2781-1.8868-.7763s-.7851-1.1748-.7887-1.8817v-17.5126c0-.707-.2808-1.385-.7807-1.885-.4999-.4999-1.178-.7808-1.885-.7808s-1.3851.2809-1.8851.7808c-.4999.5-.7808 1.178-.7808 1.885v9.1786c-.0061.7028-.2881 1.3752-.7853 1.872-.4972.4969-1.1697.7784-1.8726.784-.7056-.002-1.3821-.2819-1.8829-.779-.5007-.4971-.7855-1.1715-.7927-1.877v-9.1786c-.0187-.6948-.308-1.3548-.806-1.8396-.4981-.4848-1.1657-.7561-1.8607-.7561-.6951 0-1.3628.2713-1.8608.7561-.4981.4848-.7873 1.1448-.806 1.8396v17.5126c-.0021.7043-.2828 1.3792-.7808 1.8772-.4981.4981-1.173.7788-1.8773.7808-.707.0016-1.3858-.2774-1.8874-.7757s-.785-1.1753-.7881-1.8823v-8.3282c.0096-.3563-.0523-.7108-.182-1.0428s-.3245-.6346-.57307-.89c-.24859-.2554-.54586-.4584-.8742-.597s-.68114-.21-1.03753-.21c-.3564 0-.70919.0714-1.03753.21s-.62552.3416-.87411.597c-.24858.2554-.44351.558-.57321.89-.12969.332-.19157.6865-.18194 1.0428-.00716.7056-.29192 1.3799-.79269 1.8771-.50076.4971-1.17723.777-1.88284.779-.70289-.0056-1.37538-.2872-1.872591-.784-.497213-.4969-.77926358-1.1692-.78536693-1.8721v-26.0003c.00201638-.706.28212493-1.38268.77966693-1.8835.497541-.50082 1.172371-.78542 1.878291-.79207zm8.00912 10.34607c.0096-.3563-.0523-.7109-.182-1.0428-.1296-.332-.3246-.6346-.57317-.89-.24858-.2554-.54576-.4584-.8741-.597s-.68114-.21-1.03753-.21c-.3564 0-.70919.0714-1.03753.21s-.62562.3416-.8742.597c-.24859.2554-.44343.558-.57312.89-.12969.3319-.19157.6865-.18194 1.0428v10.6671c.01877.6948.30801 1.3548.80608 1.8396s1.16565.7561 1.86071.7561c.69505 0 1.36264-.2713 1.86071-.7561.49809-.4848.78729-1.1448.80609-1.8396zm26.658 10.6671v-10.6671c-.0096-.3563.0522-.7109.1819-1.0428.1296-.332.3246-.6346.5732-.89s.5458-.4584.8742-.597c.3283-.1386.6811-.21 1.0375-.21s.7091.0714 1.0374.21c.3284.1386.6256.3416.8742.597s.4435.558.5732.89c.1297.3319.1915.6865.1819 1.0428v10.6671c-.0188.6948-.3079 1.3548-.806 1.8396s-1.1656.7561-1.8607.7561-1.3627-.2713-1.8608-.7561-.7872-1.1448-.806-1.8396z" fill-rule="evenodd"/></g></svg>

<svg width="184" height="48" viewBox="0 0 184 48" fill="none" xmlns="http://www.w3.org/2000/svg">
<path d="M75.0546 29.1709C75.0546 31.4516 74.5193 33.1273 73.4488 34.1978C72.3782 35.2684 70.7259 35.8036 68.4917 35.8036C66.2808 35.8036 63.9302 35.6873 61.4401 35.4546V30.7418C63.2553 30.8582 65.1172 30.9164 67.0255 30.9164C67.5608 30.9164 67.9797 30.7651 68.2822 30.4626C68.6081 30.1367 68.771 29.7062 68.771 29.1709V15.9055H64.2328V11.0182H75.0546V29.1709Z" fill="#BBC3CF"/>
<path d="M90.7623 35.4546H78.1951V30.5673H81.3369V15.9055H78.1951V11.0182H90.7623V15.9055H87.6205V30.5673H90.7623V35.4546Z" fill="#BBC3CF"/>
<path d="M114.847 34.9309C109.401 35.5127 104.397 35.8036 99.836 35.8036C97.5552 35.8036 95.8796 35.2684 94.8091 34.1978C93.7385 33.1273 93.2032 31.4516 93.2032 29.1709V18C93.2032 15.5564 93.7502 13.7876 94.844 12.6938C95.9611 11.5767 97.7414 11.0182 100.185 11.0182H112.752V15.9055H101.581C100.185 15.9055 99.4869 16.6036 99.4869 18V29.1709C99.4869 29.7062 99.6382 30.1367 99.9407 30.4626C100.267 30.7651 100.697 30.9164 101.232 30.9164C103.909 30.9164 106.352 30.8582 108.563 30.7418V25.68H104.025V21.4909H114.847V34.9309Z" fill="#BBC3CF"/>
<path d="M139.29 34.9309C133.844 35.5127 128.841 35.8036 124.279 35.8036C121.998 35.8036 120.323 35.2684 119.252 34.1978C118.182 33.1273 117.646 31.4516 117.646 29.1709V18C117.646 15.5564 118.193 13.7876 119.287 12.6938C120.404 11.5767 122.185 11.0182 124.628 11.0182H137.196V15.9055H126.025C124.628 15.9055 123.93 16.6036 123.93 18V29.1709C123.93 29.7062 124.081 30.1367 124.384 30.4626C124.71 30.7651 125.14 30.9164 125.676 30.9164C128.352 30.9164 130.796 30.8582 133.006 30.7418V25.68H128.468V21.4909H139.29V34.9309Z" fill="#BBC3CF"/>
<path d="M149.071 30.5673H161.813V35.4546H142.788V11.0182H149.071V30.5673Z" fill="#BBC3CF"/>
<path d="M183.64 35.4546H164.265V11.0182H183.64V15.9055H170.549V20.6182H180.847V25.5055H170.549V30.5673H183.64V35.4546Z" fill="#BBC3CF"/>
<path fill-rule="evenodd" clip-rule="evenodd" d="M2.65618 8.33013C3.36482 8.3332 4.04353 8.61609 4.54463 9.11719C5.04572 9.61828 5.32863 10.297 5.33171 11.0057C5.35048 11.7005 5.63972 12.3605 6.13779 12.8453C6.63586 13.3301 7.30344 13.6014 7.9985 13.6014C8.69355 13.6014 9.36114 13.3301 9.85921 12.8453C10.3573 12.3605 10.6465 11.7005 10.6653 11.0057V2.67553C10.6684 1.96688 10.9512 1.28812 11.4523 0.78703C11.9534 0.285935 12.6322 0.00307222 13.3408 0C14.0467 0.00665222 14.7216 0.291222 15.2191 0.792042C15.7166 1.29286 15.9968 1.96958 15.9988 2.67553V20.1647C15.9891 20.521 16.051 20.8756 16.1807 21.2076C16.3104 21.5395 16.5053 21.8421 16.7539 22.0975C17.0025 22.3529 17.2997 22.5559 17.628 22.6945C17.9564 22.8331 18.3092 22.9045 18.6656 22.9045C19.022 22.9045 19.3748 22.8331 19.7031 22.6945C20.0314 22.5559 20.3287 22.3529 20.5773 22.0975C20.8259 21.8421 21.0207 21.5395 21.1504 21.2076C21.2801 20.8756 21.342 20.521 21.3324 20.1647V11.0057C21.3354 10.297 21.6183 9.61828 22.1194 9.11719C22.6205 8.61609 23.2992 8.3332 24.0079 8.33013C24.7138 8.33678 25.3886 8.62138 25.8862 9.1222C26.3837 9.62302 26.6639 10.2997 26.6659 11.0057V20.1647C26.6659 20.8718 26.9468 21.5498 27.4467 22.0498C27.9467 22.5497 28.6247 22.8305 29.3317 22.8305C30.0387 22.8305 30.7168 22.5497 31.2167 22.0498C31.7166 21.5498 31.9975 20.8718 31.9975 20.1647V2.67553C32.0006 1.96655 32.2837 1.28749 32.7853 0.786341C33.2868 0.285191 33.966 0.00256028 34.6749 0C35.3816 0.00360393 36.0581 0.287251 36.556 0.788788C37.0539 1.29032 37.3327 1.96883 37.3311 2.67553V11.0057C37.3499 11.7005 37.639 12.3605 38.1371 12.8453C38.6352 13.3301 39.3027 13.6014 39.9978 13.6014C40.6928 13.6014 41.3605 13.3301 41.8586 12.8453C42.3567 12.3605 42.6458 11.7005 42.6646 11.0057C42.6677 10.2967 42.9508 9.61765 43.4523 9.1165C43.9538 8.61535 44.6331 8.33269 45.3421 8.33013C46.0488 8.33374 46.7253 8.61741 47.2232 9.11894C47.721 9.62048 47.9997 10.299 47.9982 11.0057V37.0138C47.9956 37.7174 47.7149 38.3915 47.2174 38.8891C46.7198 39.3866 46.0458 39.6673 45.3421 39.6699C44.6362 39.6684 43.9592 39.3887 43.458 38.8915C42.9568 38.3944 42.6717 37.7197 42.6646 37.0138C42.6742 36.6575 42.6124 36.3029 42.4827 35.971C42.353 35.639 42.1581 35.3364 41.9095 35.081C41.6609 34.8256 41.3637 34.6226 41.0353 34.484C40.707 34.3454 40.3542 34.274 39.9978 34.274C39.6414 34.274 39.2887 34.3454 38.9604 34.484C38.632 34.6226 38.3347 34.8256 38.0862 35.081C37.8376 35.3364 37.6426 35.639 37.513 35.971C37.3833 36.3029 37.3215 36.6575 37.3311 37.0138V45.3342C37.3316 45.6832 37.2632 46.0289 37.13 46.3515C36.9967 46.6741 36.8011 46.9673 36.5544 47.2141C36.3077 47.461 36.0146 47.6569 35.6921 47.7904C35.3697 47.9239 35.024 47.9925 34.6749 47.9922C33.9681 47.9933 33.2896 47.7141 32.7881 47.2159C32.2866 46.7177 32.003 46.0411 31.9994 45.3342V27.8216C31.9994 27.1146 31.7186 26.4366 31.2187 25.9366C30.7188 25.4367 30.0407 25.1558 29.3337 25.1558C28.6267 25.1558 27.9486 25.4367 27.4486 25.9366C26.9487 26.4366 26.6678 27.1146 26.6678 27.8216V37.0002C26.6617 37.703 26.3797 38.3754 25.8825 38.8722C25.3853 39.3691 24.7128 39.6506 24.0099 39.6562C23.3043 39.6542 22.6278 39.3743 22.127 38.8772C21.6263 38.3801 21.3415 37.7057 21.3343 37.0002V27.8216C21.3156 27.1268 21.0263 26.4668 20.5283 25.982C20.0302 25.4972 19.3626 25.2259 18.6676 25.2259C17.9725 25.2259 17.3048 25.4972 16.8068 25.982C16.3087 26.4668 16.0195 27.1268 16.0008 27.8216V45.3342C15.9987 46.0385 15.718 46.7134 15.22 47.2114C14.7219 47.7095 14.047 47.9902 13.3427 47.9922C12.6357 47.9938 11.9569 47.7148 11.4553 47.2165C10.9537 46.7182 10.6703 46.0412 10.6672 45.3342V37.006C10.6768 36.6497 10.6149 36.2952 10.4852 35.9632C10.3555 35.6312 10.1607 35.3286 9.91213 35.0732C9.66354 34.8178 9.36627 34.6148 9.03793 34.4762C8.70959 34.3376 8.35679 34.2662 8.0004 34.2662C7.644 34.2662 7.29121 34.3376 6.96287 34.4762C6.63453 34.6148 6.33735 34.8178 6.08876 35.0732C5.84018 35.3286 5.64525 35.6312 5.51555 35.9632C5.38586 36.2952 5.32398 36.6497 5.33361 37.006C5.32645 37.7116 5.04169 38.3859 4.54092 38.8831C4.04016 39.3802 3.36369 39.6601 2.65808 39.6621C1.95519 39.6565 1.2827 39.3749 0.785489 38.8781C0.288276 38.3812 0.00622542 37.7089 0.00012207 37.006V11.0057C0.00213845 10.2997 0.282247 9.62302 0.779789 9.1222C1.27733 8.62138 1.95216 8.33678 2.65808 8.33013H2.65618ZM10.6653 18.6762C10.6749 18.3199 10.613 17.9653 10.4833 17.6334C10.3537 17.3014 10.1587 16.9988 9.91013 16.7434C9.66155 16.488 9.36437 16.285 9.03603 16.1464C8.70769 16.0078 8.35489 15.9364 7.9985 15.9364C7.6421 15.9364 7.28931 16.0078 6.96097 16.1464C6.63263 16.285 6.33535 16.488 6.08677 16.7434C5.83818 16.9988 5.64334 17.3014 5.51365 17.6334C5.38396 17.9653 5.32208 18.3199 5.33171 18.6762V29.3433C5.35048 30.0381 5.63972 30.6981 6.13779 31.1829C6.63586 31.6677 7.30344 31.939 7.9985 31.939C8.69355 31.939 9.36114 31.6677 9.85921 31.1829C10.3573 30.6981 10.6465 30.0381 10.6653 29.3433V18.6762ZM37.3233 29.3433V18.6762C37.3137 18.3199 37.3755 17.9653 37.5052 17.6334C37.6348 17.3014 37.8298 16.9988 38.0784 16.7434C38.327 16.488 38.6242 16.285 38.9526 16.1464C39.2809 16.0078 39.6337 15.9364 39.9901 15.9364C40.3465 15.9364 40.6992 16.0078 41.0275 16.1464C41.3559 16.285 41.6531 16.488 41.9017 16.7434C42.1503 16.9988 42.3452 17.3014 42.4749 17.6334C42.6046 17.9653 42.6664 18.3199 42.6568 18.6762V29.3433C42.638 30.0381 42.3489 30.6981 41.8508 31.1829C41.3527 31.6677 40.6852 31.939 39.9901 31.939C39.295 31.939 38.6274 31.6677 38.1293 31.1829C37.6312 30.6981 37.3421 30.0381 37.3233 29.3433Z" fill="#BBC3CF"/>
</svg>
